X:1
T:arr. Kristopher J. Ring 
T:It Is Well With My Soul...
T:for Trombone Quartet
T:H. Spafford (b. 1828) 
T:P. Bliss (b. 1838)
T:©KJR Music 2020, Some Rights Reserved
T:©KJR Music 2020, Some Rights Reserved
T:©KJR Music 2020, Some Rights Reserved
Z:©KJR Music 2020, Some Rights Reserved
%%score 1 2 3 4
L:1/8
Q:1/4=93
M:4/4
K:F
V:1 tenor nm="Trombone I " snm="Trb. I"
V:2 bass nm="Trombone II" snm="Trb. II"
V:3 bass nm="Trombone III" snm="Trb. III"
V:4 bass nm="Trombone IV" snm="Trb. IV"
V:1
"^Rolling, like the sea \n\n" z4 z2!mp! (C2 | C4 B,2 A,2 | A,4 G,2 A,2 | B,2 D2 C2 B,2 | A,6) (C2 | %5
 F4 E2 D2 |"_poco rall..."[Q:1/4=90] D4 C2 =B,2 | %7
[Q:1/4=85] !breath!C6)[Q:1/4=93]!mf! C2[Q:1/4=82] |"_a tempo" F4 F2 E2 | D4 D2 D2 | G4 G2 F2 | %11
 E4 D2 C2 |"_rit..."!>(! F4[Q:1/4=85] F2 F2 |[Q:1/4=80] F4[Q:1/4=74] E3 F!>)! | %14
[Q:1/4=70]!p! !fermata!F8 ||[K:bass]"^A"[Q:1/4=94]"^Andante con moto" z8 | %16
!mp! !>!F,2 !>!A,2 !>!C4 | z8 | !>!E,2 !>!G,2 !>!F,4 |!mp! F,4 B,4 | %20
"_molto rit..." G,4 A,4[Q:1/4=85] |[Q:1/4=74] C4[Q:1/4=70] !fermata!C4 || %22
[Q:1/4=93]"^Più mosso" z8 |!p!!<(! C8 | C8!<)! |!>(! D8 | C8!>)! | z8 | z8 | z8 || z8 | z8 | z8 | %33
!mp!!<(! C8!<)! |!mf! B,8 |!>(! C8!>)! |!mp! !fermata!C8 ||!mf!"^B" !>!C2 !>!C2 !>!C4 | z8 | %39
 !>!C2 !>!C2 !>!C4 | z8 |!mp! C4 D4 |!<(! D4 C4 | B,4!<)![Q:1/4=50]!f! !breath!!fermata!C4 || %44
[K:Ab]"^Broadly, a piacere"[Q:1/4=60]!<(! C2[Q:1/4=55] D2[Q:1/4=50] !breath!E2!<)![K:tenor]!ff![Q:1/4=75] (E2 || %45
[Q:1/4=83]"^C""_largamente" E4 D2 C2 | C4 B,2 C2 | D2 F2 E2 D2 | C6) (E2 | A4 G2 F2 | F4 E2 =D2 | %51
 !breath!E6) E2 | A4 A2 G2 | F4 F2 F2 | B4 B2 A2 | G4 F2 E2 | A4 A2 A2 | %57
"_molto rall..."[Q:1/4=70] A4[Q:1/4=65] G2- G[Q:1/4=60]A |[Q:1/4=50] !fermata!A8 |] %59
V:2
 z8 |!p! A,8 | F,4 D,2 C,2 | F,8 | C,8 | z2 A,6 |"_poco rall..." z2 =B,2 A,2 G,2 | G,2 G,A, B,4 | %8
"_a tempo"!mp! A,4 C2 _D2 | B,4 B,2 C2 | =B,4 _B,2 D2 | C4 z4 |"_rit..."!>(! A,4 A,2 A,2 | %13
 A,4 C4!>)! |!p! !fermata!A,8 ||!mf! !>!C2 !>!C2 !>!C4 | z8 | !>!C2 !>!C2 !>!C4 | z8 | %19
!mp! C,4 D,4 |"_molto rit..." D2 F2 F4 | E3 F !fermata!F4 || z8 | z8 | z8 | z8 | z8 |!p! A,8 | %28
 =B,8 |!<(! G,8!<)! ||!mp! C8 | F,8 | D8 |!<(! G,8!<)! |!mf! F,8 |!>(! G,8!>)! | %36
!mp! !fermata!A,8 ||!mf! !>!C,2 !>!C,2 !>!C,4 | z8 | !>!G,2 !>!G,2 !>!G,4 | z8 |!mf! (A,B, C2) D4 | %42
!<(! (DE F2) F4 | (E3 F)!<)!!f! !breath!!fermata!F4 || %44
[K:Ab]"^Broadly, a piacere"!<(! F,2 B,2 !breath!C2!<)!!f!"_largamente" (A,2 || A,2 G,2 F,2 E,2- | %46
 E,2 C,2 E,2 F,2 | F,2 A,4) (G,2 | A,2 B,2 C2 E2- | E2 C4 D2- | D2 B,4) (G,2 | C2 ED C2 C2 | %52
 E2 B,2 C4) | D2 B,2 C2 (C2 | =D2 F2 E2 C2 | B,2) (E2 D2 C2 | C2) (E2 C2 D2 | %57
"_molto rall..." E2) C2 D3 E | !fermata!E8 |] %59
V:3
 z8 |!p! F,8 | D,4 A,,4 | D,8 | F,8 | z4 F,4 |"_poco rall..." z4 F,4 |!mf! E,F, E,6 | %8
"_a tempo"!mp! F,4 A,2 A,2 | D,4 F,2 E,2 | D,4 G,2 A,2 | G,4 z4 |"_rit..."!>(! C,4 C,2 D,2 | %13
 C,4 G,4!>)! |!p! !fermata!C,8 ||!mf! !>!G,2 !>!G,2 !>!G,4 | z8 | !>!G,2 !>!G,2 !>!G,4 | z8 | %19
!mf! A,2 C2 D4 |"_molto rit..." F,4 C,4 | C,4 !fermata!A,4 || z4 z2!mp! (C2 | C4 B,2 A,2 | %24
 A,4 G,2 A,2 | B,2 D2 C2 B,2 | A,6) z2 |!p! D,8 | D,8 | !breath!E,6!mf! C,2 || F,4 F,2 E,2 | %31
 D,4 D,2 D,2 | G,4!<(! G,2 F,2 | E,4 C,4!<)! |!mf! D,8 |!>(! C,8!>)! |!mp! !fermata!F,,8 || z8 | %38
!mp! !>!F,2 !>!A,2 !>!C4 | z8 | !>!G,2 !>!B,2 !>!A,4 |!mp! (A,4 B,4 |!<(! B,4 A,4 | %43
 G,4)!<)!!f! !breath!!fermata!A,4 ||[K:Ab]"^Broadly, a piacere"!<(! F,2 F,2!<)! A,4 || z8 | z8 | %47
 z8 | z4!mf!"_largamente" (G,4 | F,4 E,2 A,2 | A,4 G,2 B,2 | A,8) | (C,2 E,2 F,2) z2 | %53
 (A,2 F,2 E,4) | (A,2 =D,2 G,2) z2 | (E,2 B,2 A,2 A,2 | E,2) (C,2 E,2 F,2 | %57
"_molto rall..." A,4) B,3 C | !fermata!C8 |] %59
V:4
 z8 |!p!!<(! F,,8 | F,,8!<)! |!>(! G,,8 | F,,8!>)! | z4 z2 !tenuto!D,2 | %6
"_poco rall..." z4 z2 !tenuto!G,,2 | C,8 |"_a tempo"!mp! F,,4 (F,,2 A,,2) | G,,4 G,,2 G,,2 | %10
 G,,4 (G,,2 B,,2) | C,4 z4 |"_rit..."!>(! F,,4 F,,2 F,,2 | F,,4 C,4!>)! |!p! !fermata!F,,8 || z8 | %16
!mp! !>!C,2 !>!C,2 !>!E,4 | z8 | !>!G,2 !>!B,2 !>!A,4 |!mp! F,,4 F,,4 |"_molto rit..." B,,4 F,,4 | %21
 G,,4 !fermata!F,,4 || z8 |!p!!<(! F,8 | F,8!<)! |!>(! F,8 | F,6!>)!!mp! C,2 | (F,4 E,2 D,2 | %28
 D,4) (C,2 =B,,2 |!<(! C,8)!<)! ||!mp! A,,8 | B,,8 | =B,,8 |!<(! C,4 D,2 C,2!<)! |!f! F,4 F,2 F,2 | %35
!>(! F,4 E,3 F,!>)! |!mp! !fermata!F,8 || z8 |!mp! !>!C,2 !>!F,2 !>!G,4 | z8 | %40
 !>!C,2 !>!E,2 !>!F,4 |!mp! F,4 F,4 |!<(! F,4 F,4 | C,4!<)!!f! !breath!!fermata!F,4 || %44
[K:Ab]"^Broadly, a piacere"!<(! =A,,2 _A,,2 !breath!A,,2!<)! z2 ||!f!"_largamente" (A,,4 A,,4 | %46
 E,4 B,,2 E,2 | F,2 D,2 C,2 B,,2 | E,4) z4 | z8 | z8 | z8 | A,,4 A,,2 =A,,2 | B,,4 A,,4 | B,,8 | %55
 z8 | A,,4 A,,2 B,,2 |"_molto rall..." C,4 B,,3 A,, | !fermata!A,,8 |] %59

